!!!COM: Palestrina, Giovanni Perluigi da
!!!OPR: Salvum me fac
!!!OTL: Credo
**kern	**kern	**kern	**kern	**kern
*Ibass	*Itenor	*Icalto	*Icant	*Icant
!Bassus	!Tenor	!Altus	!Cantus 2	!Cantus 1
*clefF4	*clefGv2	*clefG2	*clefG2	*clefG2
*k[b-]	*k[b-]	*k[b-]	*k[b-]	*k[b-]
*G:dor	*G:dor	*G:dor	*G:dor	*G:dor
*M4/2	*M4/2	*M4/2	*M4/2	*M4/2
=1	=1	=1	=1	=1
1r	0r	1r	0r	0g
[1G	.	[1d	.	.
=2	=2	=2	=2	=2
1G]	1r	1d]	0r	1b-
1D	[1d	[1f	.	1a
=3	=3	=3	=3	=3
1B-	1d]	2f]	0r	1.dd
.	.	2g	.	.
[1A	1f	1a	.	.
.	.	.	.	2cc
=4	=4	=4	=4	=4
1A]	1e	2r	0r	2.cc
.	.	2a	.	.
.	.	.	.	8dd
.	.	.	.	8ee
1D	2.d	2a	.	2.ff
.	.	2f	.	.
.	4c	.	.	4ee-
=5	=5	=5	=5	=5
1.G	4B-	2.g	0r	4dd
.	4A	.	.	4cc
.	1B-	.	.	2.dd
.	.	8f	.	.
.	.	8e	.	.
.	.	2d	.	.
.	.	.	.	4b-
2C	2c	[2g	.	2ee-
=6	=6	=6	=6	=6
1D	1A	2g]	1r	1dd
.	.	2f#	.	.
[1G	1G	2g	[1g	[1b-
.	.	2d	.	.
=7	=7	=7	=7	=7
1G]	2r	2d	1g]	1b-]
.	2G	2d	.	.
1r	2G	1g	1b-	2r
.	2G	.	.	2dd
=8	=8	=8	=8	=8
0r	2.d	2.f	1a	2dd
.	.	.	.	2dd
.	4c	4e	.	.
.	1B-	4d	[1dd	[1ff
.	.	4e	.	.
.	.	4f	.	.
.	.	4g	.	.
=9	=9	=9	=9	=9
2r	1A	1a	2dd]	2ff]
2A	.	.	2cc	2ee
2A	1r	[1a	1cc	1ee
2A	.	.	.	.
=10	=10	=10	=10	=10
1d	2r	2a]	2.ff	2.dd
.	2d	2f	.	.
.	.	.	4ee-	4cc
2.G	2d	1g	4dd	4b-
.	.	.	4cc	4a
.	2d	.	[2dd	[2b-
4A	.	.	.	.
=11	=11	=11	=11	=11
2B-	1g	0r	4dd]	2b-]
.	.	.	4b-	.
2c	.	.	2.ee-	4a
.	.	.	.	4g
1d	2g	.	.	2b-
.	.	.	4dd	.
.	2f	.	[2dd	4a
.	.	.	.	4g
=12	=12	=12	=12	=12
1A	1e	1r	2dd]	2.a
.	.	.	2cc#	.
.	.	.	.	4g
2r	2d	2r	[1dd	2f#
[2G	[2g	[2b-	.	2g
=13	=13	=13	=13	=13
2G]	2g]	2b-]	1dd]	1d
2D	2f	2a	.	.
2G	2e	2g	2r	1r
2B-	2d	2f	[2dd	.
=14	=14	=14	=14	=14
1A	2f	2.a	2dd]	0r
.	2e	.	2cc	.
.	.	4g	.	.
1D	2.d	2.f	2b-	.
.	.	.	2a	.
.	8c	8e	.	.
.	8B-	8d	.	.
=15	=15	=15	=15	=15
0r	2A	2e	2.cc	1r
.	2.f	2.a	.	.
.	.	.	4b-	.
.	.	.	1a	2r
.	4e	4g	.	.
.	4d	4f	.	[2dd
.	4c	4e	.	.
=16	=16	=16	=16	=16
0r	2B-	2d	2b-	2dd]
.	2e-	1g	2cc	2cc
.	1d	.	1dd	2b-
.	.	[2f	.	2a
=17	=17	=17	=17	=17
0r	1.c	2f]	1g	2.cc
.	.	4e-	.	.
.	.	4d	.	4b-
.	.	2e-	2a	2a
.	2B-	2d	2b-	[2g
=18	=18	=18	=18	=18
2r	2A	2c	1cc	2g]
1c	2A	2c	.	2f#
.	2G	1d	1r	1g
2B-	2g	.	.	.
=19	=19	=19	=19	=19
2A	2f	2r	0r	0r
2G	2e-	1g	.	.
2.B-	2.d	.	.	.
.	.	2f	.	.
4A	4c	.	.	.
=20	=20	=20	=20	=20
2G	2B-	2e-	1r	0r
2F	2A	2d	.	.
2E-	2G	2d	2r	.
2E-	2G	2c	[2g	.
=21	=21	=21	=21	=21
1D	1A	1d	2g]	2r
.	.	.	2f	2.dd
1r	1G	2r	2.b-	.
.	.	.	.	4cc
.	.	[2g	.	4b-
.	.	.	4cc	4a
=22	=22	=22	=22	=22
0r	0r	2g]	1dd	2b-
.	.	2f	.	2a
.	.	2e-	2cc	2g
.	.	2d	[2dd	2b-
=23	=23	=23	=23	=23
0r	2r	2f	2dd]	2a
.	1g	2e-	2cc	2g
.	.	1d	1dd	2a
.	2f#	.	.	[2dd
=24	=24	=24	=24	=24
1.G	1g	1.b-	2r	4dd]
.	.	.	.	4cc
.	.	.	1dd	4b-
.	.	.	.	4a
.	1d	.	.	2g
2F#	.	2a	2dd	2a
=25	=25	=25	=25	=25
0G	2.B-	2.g	0dd	2b-
.	.	.	.	2g
.	4c	4a	.	.
.	[1d	1b-	.	1gg
=26	=26	=26	=26	=26
0D	1d]	2a	[0dd	0ff#
.	.	1a	.	.
.	2r	.	.	.
.	[2a	2a	.	.
=27	=27	=27	=27	=27
2r	2a]	1d	0dd]	0r
1d	2a	.	.	.
.	2d	1a	.	.
2d	2f	.	.	.
=28	=28	=28	=28	=28
2G	2e-	2g	0r	0r
1B-	1d	1f	.	.
2A	2c	2f	.	.
=29	=29	=29	=29	=29
2G	2B-	2g	1r	1.dd
2F#	2A	2a	.	.
[1G	2.B-	2.d	2r	.
.	.	.	[2dd	2dd
.	4c	4c	.	.
=30	=30	=30	=30	=30
1G]	1d	4B-	2dd]	2g
.	.	4A	.	.
.	.	2G	2dd	2.b-
1G	2r	1d	2g	.
.	.	.	.	4a
.	[2d	.	[2b-	[2g
=31	=31	=31	=31	=31
1D	2d]	2r	2b-]	2g]
.	2d	1d	2a	2f
1r	2G	.	2g	2b-
.	[2d	2d	2f	2a
=32	=32	=32	=32	=32
0r	2d]	1f	2.a	4dd
.	.	.	.	4ee
.	2d	.	.	4ff
.	.	.	4b-	4dd
.	2c	2g	2cc	2ee-
.	2B-	[2b-	2f	[2dd
=33	=33	=33	=33	=33
1r	2e-	2b-]	1g	2dd]
.	2e-	4a	.	2cc
.	.	4g	.	.
2r	2d	2f	1a	[1dd
[2D	[2A	[2f	.	.
=34	=34	=34	=34	=34
2D]	2A]	2f]	0r	1dd]
2D	2B-	2d	.	.
2C	2c	2e	.	1r
2BB-	2d	2f	.	.
=35	=35	=35	=35	=35
1E-	2.B-	1g	2r	1r
.	.	.	1g	.
.	8A	.	.	.
.	8G	.	.	.
1D	1d	1a	.	2r
.	.	.	2f	[2dd
=36	=36	=36	=36	=36
2r	1A	2r	2.a	2dd]
2A	.	2e	.	2cc
.	.	.	4b	.
2A	1r	2e	2cc	2a
2A	.	2e	2a	2cc
=37	=37	=37	=37	=37
2G	0r	2g	2b-	2dd
2F	.	2c	1a	1ff
2B-	.	2.d	.	.
2B-	.	.	2g	4ee
.	.	4e	.	4dd
=38	=38	=38	=38	=38
1A	2r	2f	1a	1cc
.	2A	4e	.	.
.	.	4d	.	.
1r	2A	2.e	2.cc	1a
.	2A	.	.	.
.	.	4f	4dd	.
=39	=39	=39	=39	=39
0r	2G	2g	4ee	2b-
.	.	.	4dd	.
.	2F	2c	2.ff	4a
.	.	.	.	4g
.	2B-	1d	.	2f
.	.	.	4ee	.
.	2B-	.	[2dd	2g
=40	=40	=40	=40	=40
0r	1A	1e	2dd]	0a
.	.	.	2cc#	.
.	1d	1f#	[1dd	.
=41	=41	=41	=41	=41
1G	1r	2r	0dd]	1b-
.	.	2d	.	.
2F	1d	2f	.	2a
2D	.	2f	.	2f
=42	=42	=42	=42	=42
1F	2c	2.f	0r	1a
.	2A	.	.	.
.	.	4e-	.	.
1G	1B	1d	.	1g
=43	=43	=43	=43	=43
1C	1c	0g	2r	2r
.	.	.	2ee-	2cc
1r	2r	.	2dd	2b-
.	2e-	.	2b-	2g
=44	=44	=44	=44	=44
1G	2d	2r	1.dd	4b-
.	.	.	.	4cc
.	2B-	2b-	.	4dd
.	.	.	.	4ee
2F	2.d	2a	.	[1ff
2D	.	2f	2dd	.
.	8c	.	.	.
.	8B-	.	.	.
=45	=45	=45	=45	=45
1F	4A	1a	1cc	1ff]
.	4B-	.	.	.
.	1c	.	.	.
1G	.	1g	1r	1dd
.	2B	.	.	.
=46	=46	=46	=46	=46
1C	1c	1g	2r	1ee-
.	.	.	1cc	.
1r	1g	1r	.	2r
.	.	.	2b-	[2dd
=47	=47	=47	=47	=47
0r	2f	0r	2a	4dd]
.	.	.	.	4cc
.	2e-	.	2g	2cc
.	2d	.	2dd	2b-
.	2f	.	[2cc	2a
=48	=48	=48	=48	=48
0r	2e-	2r	2cc]	2g
.	2d	2f	2b-	2f
.	2c	2e-	2a	2a
.	2B-	2d	[2g	2b-
=49	=49	=49	=49	=49
2r	1A	1c	2g]	1cc
1c	.	.	2f#	.
.	1G	2d	1g	1r
2B-	.	[2g	.	.
=50	=50	=50	=50	=50
1A	0r	2g]	0r	1r
.	.	2f	.	.
2G	.	2e	.	2r
[2B-	.	4d	.	[2dd
.	.	4e	.	.
=51	=51	=51	=51	=51
2B-]	0r	4f	0r	2dd]
.	.	4d	.	.
2A	.	2.e	.	2cc
2G	.	.	.	2b-
.	.	4d	.	.
2F	.	[2d	.	2a
=52	=52	=52	=52	=52
1E	2r	2d]	1r	2.g
.	1g	2c#	.	.
.	.	.	.	4a
1D	.	1d	2r	2b-
.	2f	.	2dd	2a
=53	=53	=53	=53	=53
0r	2e-	0r	2cc	2r
.	2d	.	1b-	1dd
.	2.f	.	.	.
.	.	.	2a	2cc
.	4e-	.	.	.
=54	=54	=54	=54	=54
0r	1d	1r	2ff	2b-
.	.	.	2ff	2a
.	1c	2r	1ee-	2.cc
.	.	[2g	.	.
.	.	.	.	4b-
=55	=55	=55	=55	=55
1r	1d	2g]	2dd	1a
.	.	2f	2.dd	.
2r	1G	1b-	.	2g
.	.	.	4cc	.
[2G	.	.	4b-	[2d
.	.	.	4a	.
=56	=56	=56	=56	=56
2G]	2r	2b-	2g	2d]
2F	1c	2a	2a	2f
2E-	.	2r	2cc	4g
.	.	.	.	4e-
2D	2B-	[2f	2dd	4f
.	.	.	.	4g
=57	=57	=57	=57	=57
2F	2A	2f]	2cc	2a
1G	2G	2.d	2.b-	2b-
.	2B-	.	.	1g
.	.	8c	4a	.
.	.	8d	.	.
2C	2c	2e-	[2g	.
=58	=58	=58	=58	=58
0D	0A	0d	2g]	1dd
.	.	.	4f	.
.	.	.	4e	.
.	.	.	2f#	1dd
.	.	.	2f#	.
=59	=59	=59	=59	=59
0G	1G	2r	0g	0b
.	.	1d	.	.
.	2r	.	.	.
.	[2G	2d	.	.
=60	=60	=60	=60	=60
0r	2G]	2e	0r	0r
.	2A	2f	.	.
.	2B-	2.g	.	.
.	2c	.	.	.
.	.	4a	.	.
=61	=61	=61	=61	=61
2r	2.d	4b-	0r	0r
.	.	4a	.	.
1D	.	1a	.	.
.	4e	.	.	.
.	2f	.	.	.
2E	[2e	2g	.	.
=62	=62	=62	=62	=62
2F	4e]	2a	1r	0r
.	4d	.	.	.
2G	1d	4g	.	.
.	.	4f	.	.
2A	.	4e	2r	.
.	.	4d	.	.
2A	2c#	2e	[2a	.
=63	=63	=63	=63	=63
1D	1d	2d	2a]	2r
.	.	2f	2a	2dd
1r	1r	2g	2b-	2dd
.	.	2e	2cc	2ee
=64	=64	=64	=64	=64
2r	0r	2.d	2dd	2ff
2D	.	.	1ff	1dd
.	.	4e	.	.
2D	.	2f	.	.
2E	.	2g	[2ee	[2cc
=65	=65	=65	=65	=65
2F	0r	2a	4ee]	4cc]
.	.	.	4dd	4a
2G	.	4g	1dd	2b-
.	.	4f	.	.
1A	.	4e	.	1a
.	.	4d	.	.
.	.	2e	2cc#	.
=66	=66	=66	=66	=66
2.B-	2r	0d	0dd	2f
.	2G	.	.	2b-
4A	.	.	.	.
2G	2G	.	.	2b-
2F	2A	.	.	2a
=67	=67	=67	=67	=67
1E-	2B-	1G	2r	1.g
.	2c	.	2g	.
1D	1d	2r	2b-	.
.	.	[2d	2a	2f
=68	=68	=68	=68	=68
0r	2.f	4d]	2dd	1a
.	.	4e	.	.
.	.	1f	2cc	.
.	4e	.	.	.
.	2d	.	2b-	[1dd
.	2c	2e	[2a	.
=69	=69	=69	=69	=69
1r	1B-	1d	4a]	1dd]
.	.	.	8g	.
.	.	.	8f	.
.	.	.	2g	.
2r	1A	1e	1a	1cc#
2A	.	.	.	.
=70	=70	=70	=70	=70
2.B-	2r	1d	1f	0r
.	2d	.	.	.
4A	.	.	.	.
2G	2d	2r	2b-	.
2F#	2d	2a	2a	.
=71	=71	=71	=71	=71
0G	2B-	2.b-	1g	0r
.	2.e-	.	.	.
.	.	4a	.	.
.	.	2g	1b-	.
.	4d	.	.	.
.	[2d	2f	.	.
=72	=72	=72	=72	=72
1A	2d]	1e	0a	1ee
.	2c#	.	.	.
2D	2.d	2.d	.	2.ff
2D	.	.	.	.
.	8c	4e	.	4ee
.	8B-	.	.	.
=73	=73	=73	=73	=73
2D	1A	1f	2r	2dd
2F	.	.	2a	2cc
2.BB-	1B-	2d	2.ff	2.dd
.	.	2d	.	.
4C	.	.	4ee-	4cc
=74	=74	=74	=74	=74
4D	1F	2.f	2dd	2b-
4E-	.	.	.	.
2F	.	.	2cc	2a
.	.	4e-	.	.
2.BB-	2.f	2d	2.dd	4b-
.	.	.	.	4cc
.	.	2B-	.	4dd
4C	4e-	.	4cc	4ee-
=75	=75	=75	=75	=75
4D	2d	2r	2b-	2.ff
4E-	.	.	.	.
2F	2c	2A	2.a	.
.	.	.	.	4ee-
1G	2B-	2.B-	.	[1dd
.	.	.	4g	.
.	2G	.	[2g	.
.	.	4c	.	.
=76	=76	=76	=76	=76
1D	1A	1d	2g]	1dd]
.	.	.	2f#	.
1G	1G	1B	1g	1dd
=77	=77	=77	=77	=77
1r	1r	1r	1r	1r
[1D	[1d	[1f#	[1a	[1dd
=78	=78	=78	=78	=78
1D]	1d]	1f#]	1a]	1dd]
1G	1d	1g	1b-	1dd
=79	=79	=79	=79	=79
1F#	1d	1a	1a	1dd
[1G	[1B-	2.b-	2.g	[1dd
.	.	4a	4a	.
=80	=80	=80	=80	=80
1G]	1B-]	1g	1b-	1dd]
1C	1G	1g	1cc	1ee-
=81	=81	=81	=81	=81
0D	1d	1f#	1a	1dd
.	1d	1f#	1dd	1a
=82	=82	=82	=82	=82
0r	1G	1g	1dd	1b
.	2G	2g	2dd	2b
.	2G	2g	2dd	2b
=83	=83	=83	=83	=83
0r	0c	0g	0ee-	0cc
=84	=84	=84	=84	=84
1r	1d	1f#	2dd	[0a
.	.	.	1dd	.
[1D	2r	2r	.	.
.	[2d	[2f	2dd	.
=85	=85	=85	=85	=85
2D]	2d]	2f]	2.dd	1a]
2D	2d	2f	.	.
.	.	.	4cc	.
1D	2.d	1f	2b-	1r
.	.	.	2a	.
.	4c	.	.	.
=86	=86	=86	=86	=86
1D	2B-	2f	2.dd	0r
.	2A	1d	.	.
.	.	.	4cc	.
[1E-	[1G	.	2b-	.
.	.	4c	2a	.
.	.	4B-	.	.
=87	=87	=87	=87	=87
2E-]	2G]	2c	2g	0r
2E-	2G	2c	2g	.
1D	1A	1d	1f#	.
=88	=88	=88	=88	=88
0BB-	0B-	0d	0dd	0ff
=89	=89	=89	=89	=89
1C	1G	1e-	1cc	1ee-
1D	1d	[1f	1a	2dd
.	.	.	.	[2ff
=90	=90	=90	=90	=90
0BB-	2.d	2f]	2.ff	4ff]
.	.	.	.	4ee-
.	.	2.b-	.	4dd
.	4e-	.	4ee-	4cc
.	2f	.	4dd	2b-
.	.	4a	4cc	.
.	[2g	4g	4b-	2dd
.	.	4f	4a	.
=91	=91	=91	=91	=91
0C	4g]	4e-	2.g	2.cc
.	4f	4d	.	.
.	4e-	2.c	.	.
.	4d	.	4f	4b-
.	2.c	.	4e-	2a
.	.	4d	4d	.
.	.	2e-	[2g	2g
.	4B-	.	.	.
=92	=92	=92	=92	=92
0D	0A	0d	2g]	0dd
.	.	.	4f	.
.	.	.	4e	.
.	.	.	2f#	.
.	.	.	2f#	.
=93	=93	=93	=93	=93
[0G	[0G	[0d	[0g	[0b
=94	=94	=94	=94	=94
0G]	0G]	0d]	0g]	0b]
*	*	*	*	*-
!! Crucifixus
*Itenor	*Icalto	*Icant	*Icant
!Tenor	!Altus	!Cantus 2	!Cantus 1
*clefGv2	*clefG2	*clefG2	*clefG2
*k[b-]	*k[b-]	*k[b-]	*k[b-]
*G:dor	*G:dor	*G:dor	*G:dor
*M4/2	*M4/2	*M4/2	*M4/2
=95	=95	=95	=95
0r	0r	1.g	0r
.	.	2g	.
=96	=96	=96	=96
0r	1r	1b-	0r
.	[1d	1a	.
=97	=97	=97	=97
0r	2d]	2r	0r
.	2d	1dd	.
.	1e-	.	.
.	.	2cc	.
=98	=98	=98	=98
0r	1d	2ff	0r
.	.	2dd	.
.	2r	4ff	.
.	.	4ee	.
.	[2g	4dd	.
.	.	4cc	.
=99	=99	=99	=99
0r	2g]	2b-	1r
.	2f	2cc	.
.	2b-	[1dd	[1g
.	2g	.	.
=100	=100	=100	=100
0r	2.b-	0dd]	2g]
.	.	.	2g
.	4a	.	.
.	1g	.	1b-
=101	=101	=101	=101
1.d	2f	2r	1a
.	1f	2a	.
.	.	2a	2r
2d	2f	[2b-	[2dd
=102	=102	=102	=102
1e-	1g	2b-]	2dd]
.	.	4a	2cc
.	.	4g	.
1d	1a	1dd	2ff
.	.	.	2dd
=103	=103	=103	=103
2r	1.f	1a	4ff
.	.	.	4ee
1d	.	.	4dd
.	.	.	4cc
.	.	1r	2b-
2c	2e	.	4a
.	.	.	4g
=104	=104	=104	=104
2f	4d	2r	1a
.	4e	.	.
2d	4f	1dd	.
.	4g	.	.
2.f	1a	.	2r
.	.	2cc	[2a
4e	.	.	.
=105	=105	=105	=105
2.d	1r	2ff	2a]
.	.	2dd	2f
4c	.	.	.
2B-	2r	2ff	2b-
2c	[2g	[2ee	2g
=106	=106	=106	=106
1d	2g]	4ee]	2b-
.	.	4dd	.
.	2f	1dd	2.a
1e-	2b-	.	.
.	.	.	4g
.	2g	2cc	[2g
=107	=107	=107	=107
2.d	2b-	1dd	2g]
.	2.a	.	2f
4c	.	.	.
2B-	.	2r	1b-
.	4g	.	.
2G	2g	2dd	.
=108	=108	=108	=108
1d	4f	2dd	1a
.	4g	.	.
.	4a	2ff	.
.	4f	.	.
2c	1g	2ee	2r
4B-	.	2dd	2g
4A	.	.	.
=109	=109	=109	=109
1G	1r	1gg	2g
.	.	.	2b-
1d	2r	2.ff	2.a
.	2d	.	.
.	.	4ee	4g
=110	=110	=110	=110
0r	2d	2dd	4f
.	.	.	4g
.	2f	4cc	4a
.	.	4b-	4f
.	2e	2cc	2g
.	2d	[2dd	2a
=111	=111	=111	=111
1r	1g	2dd]	1b-
.	.	4cc	.
.	.	4b-	.
2r	2.f	[1a	2cc
2d	.	.	[2dd
.	4e	.	.
=112	=112	=112	=112
2d	4f	1a]	2dd]
.	4g	.	.
2f	4a	.	4cc
.	4f	.	4b-
2e	2g	1r	2cc
2d	2f	.	[2dd
=113	=113	=113	=113
1g	1e	1r	2dd]
.	.	.	2cc#
2.f	2d	2r	1dd
.	2d	[2a	.
4e	.	.	.
=114	=114	=114	=114
2d	2f	2a]	0r
2A	2e	2cc	.
2.d	2f	2b-	.
.	[2a	2a	.
4c	.	.	.
=115	=115	=115	=115
1B-	2a]	1dd	1r
.	2g	.	.
[1A	1a	2.cc	2r
.	.	.	[2a
.	.	8dd	.
.	.	8ee	.
=116	=116	=116	=116
1A]	1r	2ff	2a]
.	.	2ee	2cc
1r	2r	2.dd	2b-
.	[2d	.	2a
.	.	4cc	.
=117	=117	=117	=117
0r	2d]	2b-	2dd
.	2f	4a	4cc
.	.	4b-	4dd
.	2e	4cc	4ee
.	.	8b-	8dd
.	.	8cc	8ee
.	2d	[2dd	2ff
=118	=118	=118	=118
1r	1a	2dd]	1ee
.	.	2cc#	.
2r	2.b-	[1dd	2dd
[2G	.	.	4g
.	4a	.	4a
=119	=119	=119	=119
2G]	2g	1dd]	4b-
.	.	.	4cc
2B-	4d	.	2dd
.	4e	.	.
2A	4f	1r	2cc
.	8e	.	.
.	8f	.	.
2G	[2g	.	2b-
=120	=120	=120	=120
1d	2g]	2r	1a
.	2f#	1dd	.
1e-	2.g	.	1g
.	.	2cc	.
.	4a	.	.
=121	=121	=121	=121
1d	2b-	2dd	2r
.	4a	1ff	1dd
.	4g	.	.
1r	[1a	.	.
.	.	2ee	2cc
=122	=122	=122	=122
2r	1a]	2cc	2ee
1d	.	2dd	1ff
.	1r	1a	.
2c	.	.	2ee
=123	=123	=123	=123
2d	1r	2b-	2dd
1f	.	4a	2dd
.	.	4g	.
.	2r	2a	2.cc
2e-	[2g	2g	.
.	.	.	4b-
=124	=124	=124	=124
2c	2g]	0r	1a
2d	2f#	.	.
2.G	2g	.	2.dd
.	[2b-	.	.
4A	.	.	4cc
=125	=125	=125	=125
4B-	2b-]	0r	4dd
4c	.	.	4ee
1d	2a	.	1ff
.	2f	.	.
2c	2g	.	4ee-
.	.	.	4dd
=126	=126	=126	=126
2f	2a	2r	2cc
2d	1b-	1dd	2dd
1e-	.	.	1g
.	4a	2cc	.
.	4g	.	.
=127	=127	=127	=127
1d	0a	2dd	2r
.	.	1ff	1dd
1r	.	.	.
.	.	[2ee	2cc
=128	=128	=128	=128
0r	1d	4ee]	2dd
.	.	4dd	.
.	.	1dd	1ff
.	1a	.	.
.	.	2cc	2ee
=129	=129	=129	=129
0r	2r	2.b-	2.dd
.	1g	.	.
.	.	4cc	4cc
.	.	1dd	2b-
.	2f	.	2a
=130	=130	=130	=130
1r	2g	0dd	2b-
.	1b-	.	1g
2r	.	.	.
[2d	[2a	.	2f
=131	=131	=131	=131
2d]	4a]	2r	2a
.	4f	.	.
2B-	2g	1dd	2b-
2d	2f	.	1a
[2f	[2a	2cc	.
=132	=132	=132	=132
4f]	4a]	2dd	1d
4e	4g	.	.
1d	4f	1ff	.
.	4e	.	.
.	2d	.	[1a
2c#	2e	[2ee	.
=133	=133	=133	=133
1d	2.f	4ee]	1a]
.	.	4dd	.
.	.	1dd	.
.	4d	.	.
1A	1e	.	1a
.	.	2cc#	.
=134	=134	=134	=134
1r	1d	0dd	2.f
.	.	.	8g
.	.	.	8a
[1G	1r	.	[1b-
=135	=135	=135	=135
2G]	1.d	0r	2b-]
2A	.	.	2a
2B-	.	.	1g
2c	2e	.	.
=136	=136	=136	=136
2d	2f	1r	0r
4c	2g	.	.
4B-	.	.	.
2c	1a	2r	.
2d	.	[2dd	.
=137	=137	=137	=137
1G	2.b-	2dd]	2r
.	.	2dd	1g
.	4a	.	.
1r	2g	2ee	.
.	2f	2ff	2a
=138	=138	=138	=138
0r	1e-	1gg	2b-
.	.	.	2cc
.	1d	2.ff	1dd
.	.	4ee-	.
=139	=139	=139	=139
0r	0r	2dd	2.ff
.	.	2cc	.
.	.	.	4ee-
.	.	2b-	2dd
.	.	2a	2cc
=140	=140	=140	=140
0r	2r	1dd	1b-
.	2d	.	.
.	2.f	1cc	[1a
.	4e	.	.
=141	=141	=141	=141
2r	2d	0r	0a]
2e	2c	.	.
2.f	4d	.	.
.	4e	.	.
.	4f	.	.
4e	4g	.	.
=142	=142	=142	=142
2d	1a	2r	0r
2c	.	2ee	.
2.d	1a	2.ff	.
4c	.	4ee	.
=143	=143	=143	=143
4d	1a	2dd	2r
4e	.	.	.
2f	.	2cc	2a
2.B-	1r	2.dd	2.ff
4c	.	4ee	4ee
=144	=144	=144	=144
4d	2r	1ff	2dd
4e	.	.	.
2f	2a	.	2cc
2B-	2.b-	2r	2.dd
4G	.	2dd	.
4A	4a	.	4cc
=145	=145	=145	=145
4B-	2g	2.dd	2b-
4c	.	.	.
2d	2f#	.	2a
.	.	4cc	.
4G	2g	2b-	[1dd
4A	.	.	.
4B-	4d	2b-	.
4c	4e	.	.
=146	=146	=146	=146
4d	4f	1a	2dd]
4e	4g	.	.
2f	2.a	.	2cc
2g	.	2b-	2b-
.	4g	.	.
2e-	[2g	2cc	4a
.	.	.	4g
=147	=147	=147	=147
1d	2g]	1dd	1a
.	2f#	.	.
[1G	1g	1dd	1b
=148	=148	=148	=148
0G]	2r	2r	2r
.	2d	2b-	2dd
.	2.g	2.b-	2.dd
.	4g	4b-	4dd
=149	=149	=149	=149
1r	2g	2b-	2dd
.	2f#	2a	2dd
2r	1g	1b	1dd
2G	.	.	.
=150	=150	=150	=150
2.g	1c	1cc	1ee-
4g	.	.	.
2g	1d	1a	1dd
2f#	.	.	.
=151	=151	=151	=151
2g	2r	2r	2r
2G	2d	2dd	2b-
4G	2.g	2.dd	2.b-
4A	.	.	.
4B-	.	.	.
4c	4g	4dd	4b-
=152	=152	=152	=152
1d	2g	2dd	2b-
.	2f#	2dd	2a
2r	1g	1dd	1b
2G	.	.	.
=153	=153	=153	=153
2.g	1c	1ee-	1cc
4g	.	.	.
2g	1d	1dd	2a
2f#	.	.	[2dd
=154	=154	=154	=154
1g	0r	1b-	4dd]
.	.	.	4cc
.	.	.	2.b-
1f	.	1cc	.
.	.	.	8a
.	.	.	8g
.	.	.	2a
=155	=155	=155	=155
1B-	2r	0dd	1b-
.	1f	.	.
1B-	.	.	1dd
.	[2g	.	.
=156	=156	=156	=156
1c	2g]	1cc	1ee
.	1a	.	.
1d	.	1a	1ff
.	[2d	.	.
=157	=157	=157	=157
1.G	2d]	1.b-	1.dd
.	1g	.	.
2d	2f#	2a	2dd
=158	=158	=158	=158
0d	1f#	2a	0dd
.	.	1a	.
.	2r	.	.
.	[2d	2a	.
=159	=159	=159	=159
0r	2d]	1dd	0r
.	2d	.	.
.	1a	2cc	.
.	.	2cc	.
=160	=160	=160	=160
0r	2a	1.ff	0r
.	2f	.	.
.	[1b-	.	.
.	.	2ee	.
=161	=161	=161	=161
1G	2b-]	2dd	0r
.	2a	2cc	.
1G	[1g	1b-	.
=162	=162	=162	=162
1d	2g]	0a	0r
.	4f	.	.
.	4e	.	.
2d	2f	.	.
2c	2e	.	.
=163	=163	=163	=163
1.f	1d	2r	1a
.	.	2a	.
.	2r	1cc	1a
2e	2A	.	.
=164	=164	=164	=164
2d	2f	2b-	0dd
2c	2e	2.a	.
1B-	2.d	.	.
.	.	8g	.
.	.	8f	.
.	.	2g	.
.	4e	.	.
=165	=165	=165	=165
1A	2f	1a	2cc
.	2e	.	2cc
1F	1a	1cc	[1ff
=166	=166	=166	=166
1.B-	1f	1.b-	2ff]
.	.	.	2ee
.	[1b-	.	2dd
2A	.	2cc	2cc
=167	=167	=167	=167
0G	2b-]	0dd	0b-
.	2a	.	.
.	1g	.	.
=168	=168	=168	=168
[0d	[0f#	[0dd	[0a
=169	=169	=169	=169
0d]	0f#]	0dd]	0a]
*-	*-	*-	*-
!! Et in Spiritum
**kern	**kern	**kern	**kern	**kern
*Ibass	*Itenor	*Icalto	*Icant	*Icant
!Bassus	!Tenor	!Altus	!Cantus 2	!Cantus 1
*clefF4	*clefGv2	*clefG2	*clefG2	*clefG2
*k[b-]	*k[b-]	*k[b-]	*k[b-]	*k[b-]
*G:dor	*G:dor	*G:dor	*G:dor	*G:dor
*M4/2	*M4/2	*M4/2	*M4/2	*M4/2
=170	=170	=170	=170	=170
1.A	1.e	1.a	1.cc#	0r
2A	2e	2a	2cc#	.
=171	=171	=171	=171	=171
2D	2f	2a	2dd	0r
2D	2f	2a	2dd	.
1A	1e	1a	1cc#	.
=172	=172	=172	=172	=172
1G	1g	1b-	1dd	0r
1D	2f	1a	2dd	.
.	[2d	.	[2ff	.
=173	=173	=173	=173	=173
2.d	4d]	1f	4ff]	0r
.	4c	.	4ee-	.
.	4B-	.	1dd	.
4c	4A	.	.	.
2B-	2G	1g	.	.
2c	[2g	.	4cc	.
.	.	.	4b-	.
=174	=174	=174	=174	=174
2A	2g]	1a	2cc	1r
2A	2f#	.	2cc	.
2.G	1g	2d	2b-	[1dd
.	.	[2b-	[2g	.
8F	.	.	.	.
8E-	.	.	.	.
=175	=175	=175	=175	=175
1D	0r	2b-]	2g]	2dd]
.	.	2a	2f	2dd
1r	.	2g	2b-	2dd
.	.	2f	2a	2dd
=176	=176	=176	=176	=176
1r	2r	2e-	2b-	1ee-
.	1g	2c	2cc	.
2r	.	2d	1a	[1dd
[2D	2f	2a	.	.
=177	=177	=177	=177	=177
2D]	2d	2b-	2r	0dd]
2D	2.f	2a	2a	.
2D	.	1f	2a	.
.	4e	.	.	.
2D	[2d	.	[2b-	.
=178	=178	=178	=178	=178
1E-	2d]	1.g	2b-]	0r
.	2c	.	2g	.
1D	[1d	.	2b-	.
.	.	2f#	4a	.
.	.	.	4g	.
=179	=179	=179	=179	=179
2r	1d]	2r	1a	2r
1d	.	1f	.	1a
.	1r	.	1dd	.
2d	.	2f	.	2a
=180	=180	=180	=180	=180
2c#	1r	2e	0r	2a
2d	.	2f	.	2a
2G	2r	2g	.	2b-
2G	[2d	2g	.	2b-
=181	=181	=181	=181	=181
1D	2d]	2.f	0r	1a
.	2d	.	.	.
.	.	4g	.	.
1D	2d	4a	.	1f
.	.	4b-	.	.
.	2d	[2a	.	.
=182	=182	=182	=182	=182
0r	2e-	4a]	1r	1g
.	.	4g	.	.
.	2e-	1g	.	.
.	[1d	.	2r	1a
.	.	4f	[2dd	.
.	.	4e	.	.
=183	=183	=183	=183	=183
0r	1d]	2f	2dd]	2d
.	.	1f	2dd	2a
.	1B-	.	2dd	2b-
.	.	[2g	2dd	2b-
=184	=184	=184	=184	=184
0r	1c	2g]	2ee-	2g
.	.	1a	2ee-	2cc
.	1d	.	1dd	4f
.	.	.	.	4g
.	.	[2d	.	4a
.	.	.	.	4f
=185	=185	=185	=185	=185
0r	1G	2d]	1b-	4g
.	.	.	.	4a
.	.	2g	.	1b-
.	1r	2e-	1cc	.
.	.	2f	.	2a
=186	=186	=186	=186	=186
2r	0r	2B-	1dd	2.b-
2G	.	2b-	.	.
.	.	.	.	4cc
2G	.	2b-	1g	[1dd
[2G	.	[2b-	.	.
=187	=187	=187	=187	=187
2G]	2r	2b-]	0r	1dd]
2F	2d	2a	.	.
1B-	2d	2g	.	1r
.	[2d	[2f	.	.
=188	=188	=188	=188	=188
2A	2d]	2f]	2r	0r
2A	2c	1e	2a	.
[1D	1f	.	2a	.
.	.	4d	[2a	.
.	.	4c#	.	.
=189	=189	=189	=189	=189
1D]	2d	4d	2a]	0r
.	.	4e	.	.
.	2d	4f	2f	.
.	.	4g	.	.
1r	4G	4a	1b-	.
.	4A	4f	.	.
.	4B-	2g	.	.
.	4c	.	.	.
=190	=190	=190	=190	=190
2r	2d	4f	2.a	1r
.	.	4e	.	.
1d	1f	4d	.	.
.	.	8c	4a	.
.	.	8B-	.	.
.	.	1A	1a	2r
2c#	2e	.	.	[2a
=191	=191	=191	=191	=191
2.d	2.f	0r	0r	2a]
.	.	.	.	2a
4c	4e	.	.	.
2B-	2d	.	.	2g
2A	2c	.	.	2f
=192	=192	=192	=192	=192
1G	1d	2r	2r	1b-
.	.	2d	2dd	.
[1D	2d	2.f	2dd	2a
.	2d	.	2dd	2a
.	.	4g	.	.
=193	=193	=193	=193	=193
1D]	2d	2a	1ff	2dd
.	2d	2b	.	2dd
1r	2c	2cc	2ee-	2g
.	2B-	2f	[2dd	[2b-
=194	=194	=194	=194	=194
0r	1e-	1g	4dd]	4b-]
.	.	.	8cc	4a
.	.	.	8b-	.
.	.	.	2cc	1g
.	1d	1a	1dd	.
.	.	.	.	2f#
=195	=195	=195	=195	=195
1G	1r	2.b-	2r	1g
.	.	.	2dd	.
.	.	4a	.	.
2G	2r	1g	2ee-	1r
[2B-	2d	.	[2dd	.
=196	=196	=196	=196	=196
2B-]	2d	1f	2dd]	1r
4A	1f	.	4cc	.
4G	.	.	4b-	.
2F	.	1r	2a	2r
2G	4e-	.	2b	2g
.	4d	.	.	.
=197	=197	=197	=197	=197
2C	2e-	1r	2cc	2g
1G	2d	.	2dd	1b-
.	2.d	2r	2g	.
2F#	.	[2d	2a	2a
.	4c	.	.	.
=198	=198	=198	=198	=198
1G	4B-	2d]	1b-	2g
.	4A	.	.	.
.	2G	2d	.	2dd
[1D	2r	2.f	1a	2dd
.	2d	.	.	[2ff
.	.	4g	.	.
=199	=199	=199	=199	=199
1D]	2d	1.a	2r	2ff]
.	1f	.	2a	4ee
.	.	.	.	4dd
1r	.	.	2a	2.cc
.	4e	4g	[2cc	.
.	4d	4f	.	4dd
=200	=200	=200	=200	=200
0r	2c	2g	4cc]	2ee
.	.	.	4b-	.
.	2d	2f	4a	1dd
.	.	.	4g	.
.	1A	1e	1a	.
.	.	.	.	2cc#
=201	=201	=201	=201	=201
2r	1r	1d	2a	0dd
1G	.	.	1b-	.
.	2r	1d	.	.
[2B-	[2d	.	[2dd	.
=202	=202	=202	=202	=202
2B-]	2d]	2B-	2dd]	0r
2A	1f	2c	2cc	.
1G	.	2d	2b-	.
.	2e	2e	2g	.
=203	=203	=203	=203	=203
2F	1d	0f	2a	0r
2D	.	.	2.b-	.
1F	2c	.	.	.
.	.	.	4a	.
.	2A	.	[2a	.
=204	=204	=204	=204	=204
2.G	2B-	2.d	2a]	2r
.	2B-	.	2g	1dd
4G	.	4d	.	.
[1D	2A	1d	1a	.
.	[2d	.	.	[2ff
=205	=205	=205	=205	=205
1D]	2d]	2r	1d	4ff]
.	.	.	.	4ee
.	1f	1a	.	1dd
1r	.	.	2f	.
.	2e	[2cc	2g	2cc
=206	=206	=206	=206	=206
0r	2d	2cc]	2a	2ff
.	2d	2b	2b	2dd
.	2c	2a	1cc	2ee
.	2A	2a	.	2ff
=207	=207	=207	=207	=207
0r	1c	2g	2.cc	1ee
.	.	2e	.	.
.	.	.	4b-	.
.	1d	2f#	2a	[1dd
.	.	[2g	2g	.
=208	=208	=208	=208	=208
1r	1d	2g]	2a	2dd]
.	.	2f#	2a	2dd
2r	1G	1g	2.b-	1dd
[2G	.	.	.	.
.	.	.	4cc	.
=209	=209	=209	=209	=209
2G]	2r	2r	1dd	2r
1B-	2G	2g	.	2dd
.	2B-	2f	1r	2dd
2A	2c	2f	.	2cc
=210	=210	=210	=210	=210
2G	2d	1B-	1r	2b-
2G	2e	.	.	2g
2F	2f	2c	2r	2a
2D	4F	[2f	2dd	2a
.	4G	.	.	.
=211	=211	=211	=211	=211
1F	4A	2f]	2cc	1a
.	4B-	.	.	.
.	1c	2f	2a	.
1G	.	1d	2b-	[1g
.	2B	.	2g	.
=212	=212	=212	=212	=212
0C	1c	1e	2r	1g]
.	.	.	4cc	.
.	.	.	4b	.
.	1c	[1g	4cc	2r
.	.	.	4dd	.
.	.	.	2ee-	2cc
=213	=213	=213	=213	=213
2r	1G	2g]	2dd	2b-
2G	.	2d	2b-	2g
2F	2r	[1f	2cc	[1a
2D	2d	.	4f	.
.	.	.	4g	.
=214	=214	=214	=214	=214
1F	2c	1f]	4a	1a]
.	.	.	4b-	.
.	2A	.	1cc	.
1G	2B-	1d	.	[1g
.	[2G	.	2b	.
=215	=215	=215	=215	=215
0C	4G]	1e	[0cc	0g]
.	8A	.	.	.
.	8B	.	.	.
.	2.c	.	.	.
.	.	2r	.	.
.	4B-	.	.	.
.	4A	[2g	.	.
.	4G	.	.	.
=216	=216	=216	=216	=216
2r	1A	2g]	1cc]	0r
1c	.	2f	.	.
.	1G	2e	1r	.
2B-	.	2d	.	.
=217	=217	=217	=217	=217
2A	2r	2f	0r	0r
2G	1g	2e	.	.
2.B-	.	2.d	.	.
.	2f	.	.	.
4A	.	4c	.	.
=218	=218	=218	=218	=218
2G	2e	2B-	0r	1r
2F	2d	2A	.	.
1E	2d	1G	.	2r
.	2c#	.	.	[2gg
=219	=219	=219	=219	=219
1D	1d	2A	1r	2gg]
.	.	2.a	.	2ff
1r	2c	.	2r	2ee
.	.	8g	.	.
.	.	8f	.	.
.	2B-	2g	[2dd	2dd
=220	=220	=220	=220	=220
0r	1A	1a	2dd]	2ff
.	.	.	2cc	2ee
.	2.d	[1f	2b-	[1dd
.	.	.	2a	.
.	4c	.	.	.
=221	=221	=221	=221	=221
0r	2B-	0f]	2.ff	2dd]
.	2A	.	.	2cc
.	.	.	4ee	.
.	2B-	.	2dd	2b-
.	2F	.	2cc	2a
=222	=222	=222	=222	=222
0r	4G	1d	1b-	1g
.	4A	.	.	.
.	4B-	.	.	.
.	4c	.	.	.
.	[1d	2r	1a	1f
.	.	[2a	.	.
=223	=223	=223	=223	=223
2r	1d]	4a]	1.ff	1.a
.	.	4g	.	.
1d	.	4f	.	.
.	.	4e	.	.
.	1r	2d	.	.
2c#	.	2e	2ee	2a
=224	=224	=224	=224	=224
1d	2r	1f	1dd	1a
.	1d	.	.	.
1A	.	1e	2ee	1a
.	2c#	.	[2a	.
=225	=225	=225	=225	=225
1.D	1d	1.a	4a]	1.ff
.	.	.	4g	.
.	.	.	4f	.
.	.	.	4e	.
.	[1A	.	2d	.
2C#	.	2a	2e	2ee
=226	=226	=226	=226	=226
1D	1A]	1a	1f	1dd
1AA	2r	1a	1e	1cc#
.	[2e	.	.	.
=227	=227	=227	=227	=227
2.A	4e]	2.a	0r	2.cc#
.	4e	.	.	.
.	2e	.	.	.
4A	.	4a	.	4cc#
2A	2e	2a	.	2cc#
2A	[2f	2a	.	2cc#
=228	=228	=228	=228	=228
1B-	2f]	1d	1r	2dd
.	4e	.	.	2g
.	4d	.	.	.
[1A	2c	1e	2.ee	1a
.	2A	.	.	.
.	.	.	4ee	.
=229	=229	=229	=229	=229
1A]	1.c	2.a	2ee	2a
.	.	.	2ee	2.cc
.	.	4a	.	.
1F	.	2a	1ff	.
.	.	.	.	4b-
.	[2d	2a	.	2a
=230	=230	=230	=230	=230
1G	2d]	1b-	2dd	2.g
.	1e	.	2b-	.
.	.	.	.	4f
1A	.	1a	1cc	1e
.	2A	.	.	.
=231	=231	=231	=231	=231
2D	1a	1.f	0dd	4d
.	.	.	.	4e
1d	.	.	.	4f
.	.	.	.	4g
.	2r	.	.	1a
2d	2d	2f	.	.
=232	=232	=232	=232	=232
2.c	2e	2.e	1g	2r
.	1g	.	.	2g
4B-	.	4d	.	.
1A	.	1c	1r	2a
.	2f	.	.	[2cc
=233	=233	=233	=233	=233
1G	2e	1g	1r	2cc]
.	2d	.	.	2b-
1r	2f	1r	2r	2a
.	2g	.	2dd	2g
=234	=234	=234	=234	=234
0r	2g	1r	2dd	2b-
.	2c	.	1gg	2cc
.	1d	2r	.	1a
.	.	2d	2ff	.
=235	=235	=235	=235	=235
2r	2c	2e	2ee	0r
2G	2B-	1g	2dd	.
2A	1A	.	1cc	.
[2c	.	2f	.	.
=236	=236	=236	=236	=236
2c]	1G	2e	0r	2.g
2B-	.	2d	.	.
.	.	.	.	4g
2A	2r	2f	.	2a
2G	2d	2g	.	[2b-
=237	=237	=237	=237	=237
2B-	2d	4g	2r	4b-]
.	.	4f	.	4a
2c	1g	4e	2g	2g
.	.	4d	.	.
2A	.	1c	2a	1cc
2A	2f	.	[2cc	.
=238	=238	=238	=238	=238
1G	2e	2.g	2cc]	2r
.	2d	.	2b-	1dd
.	.	4g	.	.
1r	2f	2a	2a	.
.	2g	[2b-	2g	2dd
=239	=239	=239	=239	=239
1r	2g	4b-]	2b-	2dd
.	.	4a	.	.
.	2c	1g	2cc	2ee-
1D	1d	.	2a	1dd
.	.	2f#	2a	.
=240	=240	=240	=240	=240
2E	2r	1g	2.g	2cc
1G	2G	.	.	1b-
.	.	.	8f	.
.	.	.	8e	.
.	2B-	2r	4d	.
.	.	.	4e	.
2F	[2c	2c	2f	2a
=241	=241	=241	=241	=241
2E	2c]	2e	2g	2cc
2D	2B-	1f	2dd	4f
.	.	.	.	4g
2F	2A	.	2cc	4a
.	.	.	.	4f
2G	2G	[2d	4b-	[2b-
.	.	.	4a	.
=242	=242	=242	=242	=242
2G	2B-	4d]	1g	4b-]
.	.	8c	.	4a
.	.	8d	.	.
2C	2c	2e-	.	1g
[1D	1A	[1d	1dd	.
.	.	.	.	4f
.	.	.	.	4e
=243	=243	=243	=243	=243
1D]	1A	1d]	2r	1f#
.	.	.	2a	.
[1G	2.G	2r	2b-	[1g
.	.	4B-	[2dd	.
.	4A	4c	.	.
=244	=244	=244	=244	=244
2G]	2B-	4d	2dd]	0g]
.	.	4B-	.	.
2C	2c	2e-	2cc	.
2r	2.G	4d	2b-	.
.	.	4c	.	.
[2E-	.	4B-	2g	.
.	4A	4A	.	.
=245	=245	=245	=245	=245
4E-]	2B-	1G	2.ee-	[0g
4D	.	.	.	.
1C	2c	.	.	.
.	.	.	4dd	.
.	2e-	2.g	2cc	.
2BB	2d	.	2dd	.
.	.	4f	.	.
=246	=246	=246	=246	=246
1C	1c	4e-	1ee-	0g]
.	.	4d	.	.
.	.	2c	.	.
1G	1B	1d	1dd	.
==	==	==	==	==
*-	*-	*-	*-	*-
!!!CDT: 1525/^1526/-1594/2/2
!!!OCY: Italia
!!!AGN: Mass (Parody)
!!!AST: renaissance, vocal
!!!ASW: Motet 1538 (Jacquet)
!!!PWK: Masses, Book 2
!!!RNB: Cadence finals: D
!!!YOR: Le Opere Complete, v. 4, p. 126
!!!YOO: Rome, Italy: Fratelli Scalera
!!!END: 1992//
!!!EED: John Miller
!!!YEC: Copyright 2000, John Miller
!!!YEN: United States of America
!!!YEM: Rights to all derivative electronic formats reserved.
!!!YEM: Refer to licensing agreement for further details.
!!!YEM: This file must be accompanied by the licensing agreement.
!!!YEM: A copy of the licensing agreement may be found at http://www.music-cog.ohio-state.edu/HumdrumDatabases/Palestrina/license.txt
!!!EMD: converted to Humdrum by Bret Aarden
